X:1
T:When I See the Blood
T:When I See the Blood
T:John Grier Foote & E. A. H, 19th Century
T:Public Domain Courtesy of the Cyber Hymnal™
C:John Grier Foote & E. A. H, 19th Century
Z:Public Domain
Z:Courtesy of the Cyber Hymnal™
%%score ( 1 2 ) ( 3 4 )
L:1/8
Q:1/4=115
M:4/4
K:C
V:1 treble 
V:2 treble 
V:3 bass 
V:4 bass 
V:1
 [EG]2 [EG]>[FA] [EG]2 [CE]2 | [CA]2 [FA]>[Fc] [EG]4 | [DG]2 [DF]>[DG] [DF]2 [B,D]2 | %3
w: 1.~Christ our Re- deem- er|died on the cross,|Died for the sin- ner,|
w: 2.~Chief- est of sin- ners,|Je- sus will save;|As He has prom- ised,|
w: 3.~Judg- ment is com- ing,|all will be there.|Who have re- ject- ed,|
w: 4.~O great com- pass- ion!|O bound- less love!|Je- sus hath pow- er,|
 [FA]2 [EG]>[DF] [CE]4 | [EG]2 [EG]>[FA] [EG]2 [CE]2 | [CA]2 [FA]>[FB] [Fc]4 | %6
w: paid all his due.|All who re- ceive Him|need ne- ver fear,|
w: so He will do;|Oh, sin- ner, hear Him,|trust in His Word,|
w: who have re- used?|Oh, sin- ner, hast- en,|let Je- sus in,|
w: Je- sus is true;|All who be- lieve are|safe from the storm,|
 [Fc]2 [FB]>[FA] [EG]2 [EG]2 | [FA]2 [DB]>[DB] [Ec]4 ||"^Refrain" ([CE][DF]) | [EG]6 [FA]>[EG] | %10
w: Yes, He will pass, will|pass o- ver you.|||
w: Then He will pass, will|pass o- ver you.|When *|I see the|
w: Oh, He will pass, will|pass o- ver you.|||
w: Oh, He will pass, will|pass o- ver you.|||
 [Ec]6 (Gc) | [FB]6 [FA]>[FG] | [EG]6 ([CE][DF]) | [EG]6 [Ec]>[EG] | [FA]6 [FB][Fc] | %15
w: |||||
w: blood, when *|I see the|blood, When *|I see the|blood, I will|
w: |||||
w: |||||
 [EG]2 [Ec][Ec] [FB]2 [FA][FB] |"^riten." c6 x2 |] %17
w: ||
w: pass, I will pass o- ver|you.|
w: ||
w: ||
V:2
 x8 | x8 | x8 | x8 | x8 | x8 | x8 | x8 || x2 | x8 | x6 E2 | x8 | x8 | x8 | x8 | x8 | (E2 FF E4) |] %17
V:3
 [C,C]2 [C,C]>[C,C] [C,C]2 [C,G,]2 | F,2 [F,C]>[A,,C] [C,C]4 | G,2 G,>G, G,2 G,2 | %3
w: ~ ~ ~ ~ ~|~ ~ ~ ~|~ ~ ~ ~ ~|
 [G,,G,]2 [G,,G,]>[G,,G,] [C,G,]4 | [C,C]2 [C,C]>[C,C] [C,C]2 [C,C]2 | %5
w: ~ ~ ~ ~|~ ~ ~ ~ ~|
 [F,C]2 [F,C]>[F,B,] [F,A,]4 | [F,A,]2 [F,D]>[F,C] [G,C]2 [G,C]2 | [G,D]2 G,>G, [C,G,]4 || z2 | %9
w: ~ ~ ~ ~|~ ~ ~ ~ ~|~ ~ ~ ~||
 z2 [C,C]2 [C,C]2 z2 | z2 [C,G,]>[C,G,] [C,G,]2 z2 | z2 [G,D]2 [G,D]2 z2 | %12
w: When I|see the blood,|When I|
 z2 [C,C]>[C,C] [C,C]2 z2 | z2 [C,C]2 [C,C]2 z2 | z2 [F,C]>[F,C] [F,C]2 [F,^G,][F,A,] | %15
w: see the blood,|When I|see the blood, ~ ~|
 [G,C]2 [G,C][G,C] [G,D]2 [G,D][G,D] | C2 A,A, G,4 |] %17
w: ~ ~ ~ ~ ~ ~|~ o- ver you.|
V:4
 x8 | F,2 x6 | G,2 G,>G, G,2 G,2 | x8 | x8 | x8 | x8 | x8 || x2 | x8 | x8 | x8 | x8 | x8 | x8 | %15
 x8 | C,6 x2 |] %17

